icons/calendar-line.svg

<svg viewBox="0 0 24 24" fill="currentColor" xmlns="http://www.w3.org/2000/svg"><path d="M9 1V3H15V1H17V3H21C21.5523 3 22 3.44772 22 4V20C22 20.5523 21.5523 21 21 21H3C2.44772 21 2 20.5523 2 20V4C2 3.44772 2.44772 3 3 3H7V1H9ZM20 11H4V19H20V11ZM7 5H4V9H20V5H17V7H15V5H9V7H7V5Z"/></svg>

<svg xmlns="http://www.w3.org/2000/svg" viewBox="0 0 24 24">
    <g>
        <path fill="none" d="M0 0h24v24H0z"/>
        <path d="M17 3h4a1 1 0 0 1 1 1v16a1 1 0 0 1-1 1H3a1 1 0 0 1-1-1V4a1 1 0 0 1 1-1h4V1h2v2h6V1h2v2zm-2 2H9v2H7V5H4v4h16V5h-3v2h-2V5zm5 6H4v8h16v-8z"/>
    </g>
</svg>
